src/assets/copy.svg

<svg fill="none" height="14" viewBox="0 0 14 14" width="14" xmlns="http://www.w3.org/2000/svg"><g clip-rule="evenodd" fill="#767f8d" fill-rule="evenodd"><path d="m5.81447 11.3613c-.89807 0-1.68081-.2675-2.2438-.7935-.56659-.5294-.85869-1.27252-.85869-2.11713v-4.74535c0-.84069.28998-1.58053.85198-2.10912.55848-.52528 1.33519-.795013 2.22645-.799983l.00297-.000007 4.38282-.001549c.898 0 1.6809.267559 2.2438.793619.5664.52941.8583 1.27253.8583 2.11704v4.74535c0 .8406-.2898 1.58033-.8517 2.10883-.5584.5252-1.3349.7948-2.2261.7998h-.003l-4.38303.002c-.00003 0 .00025 0 0-.5333zm0-1.0666c-.68885-.0001-1.19077-.2029-1.51559-.50635-.32124-.30013-.52023-.74567-.52023-1.33768v-4.74535c0-.58871.19739-1.03236.51611-1.33213.32201-.30287.81891-.50625 1.50026-.51031.00045-.00001.00089-.00001.00134-.00001l4.37944-.00154h.0007c.6889.00003 1.1905.20282 1.5151.50625.3211.3001.5201.74564.5201 1.33774v4.74535c0 .58879-.1974 1.03228-.5159 1.33187-.3218.30266-.8185.50596-1.5.51006z"/><path d="m3.48849 13.4385c-.89808 0-1.68081-.2676-2.24381-.7936-.566589-.5294-.858687-1.2725-.858687-2.1171l.000001-4.74534c0-1.08399.483473-1.98612 1.368406-2.48891.2561-.14551.58167-.05586.72718.20025.14551.2561.05585.58167-.20025.72718-.51409.29209-.82867.81641-.82867 1.56148v4.74534c0 .592.19899 1.0376.52023 1.3377.32482.3035.82662.5063 1.51547.5063l4.38148-.0021c.76333-.0045 1.29517-.2582 1.61212-.6273.1919-.2235.52864-.249.75204-.0571.2235.1919.2491.5286.0572.752-.56156.654-1.41673.9935-2.41672.9991h-.00298l-4.38301.0021c-.00004 0 .00025 0 0-.5334z"/></g></svg>

<svg width="14" height="14" viewBox="0 0 14 14" fill="none" xmlns="http://www.w3.org/2000/svg">
<path fill-rule="evenodd" clip-rule="evenodd" d="M5.81447 11.3613C4.9164 11.3613 4.13366 11.0938 3.57067 10.5678C3.00408 10.0384 2.71198 9.29528 2.71198 8.45067L2.71198 3.70532C2.71198 2.86463 3.00196 2.12479 3.56396 1.5962C4.12244 1.07092 4.89915 0.801187 5.79041 0.796217L5.79338 0.79621L10.1762 0.794661C11.0742 0.794661 11.8571 1.06222 12.42 1.58828C12.9864 2.11769 13.2783 2.86081 13.2783 3.70532L13.2783 8.45067C13.2783 9.29127 12.9885 10.031 12.4266 10.5595C11.8682 11.0847 11.0917 11.3543 10.2005 11.3593L10.1975 11.3593L5.81447 11.3613C5.81444 11.3613 5.81472 11.3613 5.81447 10.828L5.81447 11.3613ZM5.81447 10.2947C5.12562 10.2946 4.6237 10.0918 4.29888 9.78835C3.97764 9.48822 3.77865 9.04268 3.77865 8.45067L3.77865 3.70532C3.77865 3.11661 3.97604 2.67296 4.29476 2.37319C4.61677 2.07032 5.11367 1.86694 5.79502 1.86288C5.79547 1.86287 5.79591 1.86287 5.79636 1.86287L10.1758 1.86133C10.1758 1.86133 10.1765 1.86133 10.1765 1.86133C10.8654 1.86136 11.367 2.06415 11.6916 2.36758C12.0127 2.66768 12.2117 3.11322 12.2117 3.70532L12.2117 8.45067C12.2117 9.03946 12.0143 9.48295 11.6958 9.78254C11.374 10.0852 10.8773 10.2885 10.1958 10.2926L5.81447 10.2947Z" fill="#767F8D"/>
<path fill-rule="evenodd" clip-rule="evenodd" d="M3.48849 13.4385C2.59041 13.4385 1.80768 13.1709 1.24468 12.6449C0.678091 12.1155 0.385993 11.3724 0.385993 10.5278L0.385994 5.78246C0.385994 4.69847 0.869467 3.79634 1.7544 3.29355C2.0105 3.14804 2.33607 3.23769 2.48158 3.4938C2.62709 3.7499 2.53743 4.07547 2.28133 4.22098C1.76724 4.51307 1.45266 5.03739 1.45266 5.78246L1.45266 10.5278C1.45266 11.1198 1.65165 11.5654 1.97289 11.8655C2.29771 12.169 2.79951 12.3718 3.48836 12.3718L7.86984 12.3697C8.63317 12.3652 9.16501 12.1115 9.48196 11.7424C9.67386 11.5189 10.0106 11.4934 10.234 11.6853C10.4575 11.8772 10.4831 12.2139 10.2912 12.4373C9.72964 13.0913 8.87447 13.4308 7.87448 13.4364L7.8715 13.4364L3.48849 13.4385C3.48845 13.4385 3.48874 13.4385 3.48849 12.9051L3.48849 13.4385Z" fill="#767F8D"/>
</svg>
